img/icon-user.svg

<svg xmlns="http://www.w3.org/2000/svg" preserveAspectRatio="xMidYMid" width="16" height="16" viewBox="0 0 16 16"><path d="M14.434 16.005H8.74 6.91 1.563c-.863 0-1.566-.522-1.566-1.375v-.37c0-.783.584-1.602 1.328-1.866l3.188-1.274c.27-.097.57.042.667.31.098.27-.043.564-.315.66l-3.187 1.275c-.333.118-.637.544-.637.894v.37c0 .284.235.343.523.343h12.872c.288 0 .522-.06.522-.343v-.37c0-.35-.304-.777-.637-.895l-3.537-1.275c-.27-.096-.412-.39-.315-.66.098-.268.396-.407.668-.31l3.535 1.274c.746.264 1.33 1.083 1.33 1.865v.37c0 .853-.703 1.375-1.566 1.375zm-6.61-4.648c-2.577 0-4.667-2.542-4.667-5.678C3.157 2.54 5.247 0 7.824 0c2.578 0 4.668 2.542 4.668 5.68 0 3.135-2.09 5.677-4.668 5.677zm0-10.326C5.826 1.03 4.2 3.117 4.2 5.68c0 2.56 1.626 4.646 3.624 4.646 2 0 3.624-2.085 3.624-4.647 0-2.564-1.625-4.65-3.624-4.65z" id="path-1" class="cls-2" fill-rule="evenodd"/></svg>

<svg xmlns="http://www.w3.org/2000/svg" xmlns:xlink="http://www.w3.org/1999/xlink" preserveAspectRatio="xMidYMid" width="16" height="16" viewBox="0 0 16 16">
  <defs>
    <style>

      .cls-2 {
        fill: #27b599;
      }
    </style>
  </defs>
  <path d="M14.434,16.005 C14.434,16.005 8.741,16.005 8.741,16.005 C8.741,16.005 6.908,16.005 6.908,16.005 C6.908,16.005 1.563,16.005 1.563,16.005 C0.700,16.005 -0.003,15.483 -0.003,14.630 C-0.003,14.630 -0.003,14.259 -0.003,14.259 C-0.003,13.477 0.581,12.658 1.325,12.394 C1.325,12.394 4.513,11.120 4.513,11.120 C4.783,11.023 5.083,11.162 5.180,11.431 C5.278,11.699 5.137,11.994 4.865,12.090 C4.865,12.090 1.678,13.365 1.678,13.365 C1.345,13.483 1.041,13.909 1.041,14.259 C1.041,14.259 1.041,14.630 1.041,14.630 C1.041,14.914 1.275,14.973 1.563,14.973 C1.563,14.973 6.908,14.973 6.908,14.973 C6.908,14.973 8.741,14.973 8.741,14.973 C8.741,14.973 14.434,14.973 14.434,14.973 C14.722,14.973 14.956,14.914 14.956,14.630 C14.956,14.630 14.956,14.259 14.956,14.259 C14.956,13.909 14.652,13.483 14.319,13.365 C14.319,13.365 10.783,12.090 10.783,12.090 C10.512,11.994 10.371,11.699 10.468,11.431 C10.566,11.162 10.864,11.023 11.136,11.120 C11.136,11.120 14.671,12.394 14.671,12.394 C15.416,12.658 15.999,13.477 15.999,14.259 C15.999,14.259 15.999,14.630 15.999,14.630 C15.999,15.483 15.297,16.005 14.434,16.005 ZM7.824,11.357 C5.247,11.357 3.157,8.815 3.157,5.679 C3.157,2.542 5.247,0.000 7.824,0.000 C10.402,0.000 12.492,2.542 12.492,5.679 C12.492,8.815 10.402,11.357 7.824,11.357 ZM7.824,1.031 C5.826,1.031 4.201,3.116 4.201,5.679 C4.201,8.241 5.826,10.326 7.824,10.326 C9.823,10.326 11.448,8.241 11.448,5.679 C11.448,3.116 9.823,1.031 7.824,1.031 Z" id="path-1" class="cls-2" fill-rule="evenodd"/>
</svg>
